files/resources/svgs/general/m-chevron-double-right.svg

<svg width="20" height="20" viewBox="0 0 20 20" fill="none" xmlns="http://www.w3.org/2000/svg">
<path fill-rule="evenodd" clip-rule="evenodd" d="M10.2094 14.7698C9.92228 14.4713 9.93159 13.9965 10.2302 13.7094L14.1679 10L10.2302 6.29062C9.93159 6.00353 9.92228 5.52875 10.2094 5.23017C10.4965 4.93159 10.9713 4.92228 11.2698 5.20937L15.7698 9.45937C15.9169 9.60078 16 9.79599 16 10C16 10.204 15.9169 10.3992 15.7698 10.5406L11.2698 14.7906C10.9713 15.0777 10.4965 15.0684 10.2094 14.7698Z" fill="#0F172A"/>
<path fill-rule="evenodd" clip-rule="evenodd" d="M4.20938 14.7698C3.92228 14.4713 3.93159 13.9965 4.23017 13.7094L8.16792 10L4.23017 6.29062C3.93159 6.00353 3.92228 5.52875 4.20938 5.23017C4.49647 4.93159 4.97125 4.92228 5.26983 5.20937L9.76983 9.45937C9.91689 9.60078 10 9.79599 10 10C10 10.204 9.91689 10.3992 9.76983 10.5406L5.26983 14.7906C4.97125 15.0777 4.49647 15.0684 4.20938 14.7698Z" fill="#0F172A"/>
</svg>

<svg xmlns="http://www.w3.org/2000/svg" viewBox="0 0 20 20" fill="currentColor" aria-hidden="true">
  <path fill-rule="evenodd" d="M10.21 14.77a.75.75 0 01.02-1.06L14.168 10 10.23 6.29a.75.75 0 111.04-1.08l4.5 4.25a.75.75 0 010 1.08l-4.5 4.25a.75.75 0 01-1.06-.02z" clip-rule="evenodd"/>
  <path fill-rule="evenodd" d="M4.21 14.77a.75.75 0 01.02-1.06L8.168 10 4.23 6.29a.75.75 0 111.04-1.08l4.5 4.25a.75.75 0 010 1.08l-4.5 4.25a.75.75 0 01-1.06-.02z" clip-rule="evenodd"/>
</svg>
